material/.icons/material/compass-rose.svg

<svg xmlns="http://www.w3.org/2000/svg" viewBox="0 0 24 24"><path d="M15 9l-3-9-3 9-9 3 9 3 3 9 3-9 9-3-9-3M4 12l6-2 1 2H4m8 8l-2-6 2-1v7m0-16l2 6-2 1V4m2 10l-1-2h7l-6 2m-5.3 3.3L5 19l1.7-3.7 1.6.5.4 1.5m8.6-2L19 19l-3.7-1.7.5-1.6 1.5-.4M6.7 8.7L5 5l3.7 1.7-.5 1.5-1.5.5m8.6-2L19 5l-1.7 3.7-1.6-.5-.4-1.5z"/></svg>

<?xml version="1.0" encoding="UTF-8"?><!DOCTYPE svg PUBLIC "-//W3C//DTD SVG 1.1//EN" "http://www.w3.org/Graphics/SVG/1.1/DTD/svg11.dtd"><svg xmlns="http://www.w3.org/2000/svg" xmlns:xlink="http://www.w3.org/1999/xlink" version="1.1" id="mdi-compass-rose" width="24" height="24" viewBox="0 0 24 24"><path d="M15 9L12 0L9 9L0 12L9 15L12 24L15 15L24 12L15 9M4 12L10 10L11 12H4M12 20L10 14L12 13V20M12 4L14 10L12 11V4M14 14L13 12H20L14 14M8.7 17.3L5 19L6.7 15.3L8.3 15.8L8.7 17.3M17.3 15.3L19 19L15.3 17.3L15.8 15.7L17.3 15.3M6.7 8.7L5 5L8.7 6.7L8.2 8.2L6.7 8.7M15.3 6.7L19 5L17.3 8.7L15.7 8.2L15.3 6.7Z" /></svg>
